icons/modern/jack-o-lantern.svg

<svg width="32" height="32" viewBox="0 0 32 32" fill="none" xmlns="http://www.w3.org/2000/svg">
<path d="M17.1803 4.28665L13.8566 7.26758L18.0142 7.26759V4.65887C18.0142 4.2264 17.5023 3.9979 17.1803 4.28665Z" fill="#AEC64B"/>
<path d="M17.1803 4.28665L13.8566 7.26758L18.0142 7.26759V4.65887C18.0142 4.2264 17.5023 3.9979 17.1803 4.28665Z" fill="url(#paint0_linear_18_170)"/>
<path d="M17.1803 4.28665L13.8566 7.26758L18.0142 7.26759V4.65887C18.0142 4.2264 17.5023 3.9979 17.1803 4.28665Z" fill="url(#paint1_linear_18_170)"/>
<path d="M17.1803 4.28665L13.8566 7.26758L18.0142 7.26759V4.65887C18.0142 4.2264 17.5023 3.9979 17.1803 4.28665Z" fill="url(#paint2_radial_18_170)"/>
<g filter="url(#filter0_ii_18_170)">
<path d="M12.8573 7.0625H19.0478C23.8135 7.0625 27.1988 9.71362 28.2719 13.563L29.6157 18.3881C31.2303 24.1887 27.7041 30 19.5166 30H12.3886C4.20107 30 0.674828 24.1887 2.28943 18.3881L3.63327 13.563C4.70633 9.71362 8.09171 7.0625 12.8573 7.0625Z" fill="url(#paint3_linear_18_170)"/>
<path d="M12.8573 7.0625H19.0478C23.8135 7.0625 27.1988 9.71362 28.2719 13.563L29.6157 18.3881C31.2303 24.1887 27.7041 30 19.5166 30H12.3886C4.20107 30 0.674828 24.1887 2.28943 18.3881L3.63327 13.563C4.70633 9.71362 8.09171 7.0625 12.8573 7.0625Z" fill="url(#paint4_linear_18_170)"/>
<path d="M12.8573 7.0625H19.0478C23.8135 7.0625 27.1988 9.71362 28.2719 13.563L29.6157 18.3881C31.2303 24.1887 27.7041 30 19.5166 30H12.3886C4.20107 30 0.674828 24.1887 2.28943 18.3881L3.63327 13.563C4.70633 9.71362 8.09171 7.0625 12.8573 7.0625Z" fill="url(#paint5_radial_18_170)"/>
<path d="M12.8573 7.0625H19.0478C23.8135 7.0625 27.1988 9.71362 28.2719 13.563L29.6157 18.3881C31.2303 24.1887 27.7041 30 19.5166 30H12.3886C4.20107 30 0.674828 24.1887 2.28943 18.3881L3.63327 13.563C4.70633 9.71362 8.09171 7.0625 12.8573 7.0625Z" fill="url(#paint6_radial_18_170)"/>
</g>
<path d="M12.8573 7.0625H19.0478C23.8135 7.0625 27.1988 9.71362 28.2719 13.563L29.6157 18.3881C31.2303 24.1887 27.7041 30 19.5166 30H12.3886C4.20107 30 0.674828 24.1887 2.28943 18.3881L3.63327 13.563C4.70633 9.71362 8.09171 7.0625 12.8573 7.0625Z" fill="url(#paint7_radial_18_170)"/>
<g filter="url(#filter1_f_18_170)">
<path d="M26.5564 13.6813C26.2043 12.352 25.4672 11.2817 24.9115 10.6553C24.6362 10.345 24.2301 10.2013 23.8153 10.2013C22.8514 10.2013 22.0701 10.9826 22.0701 11.9465V21.5026C22.0701 22.0549 22.5178 22.5026 23.0701 22.5026H27.4C28.0424 22.5026 28.5182 21.9059 28.3736 21.28C27.8086 18.8336 26.9465 15.1535 26.5564 13.6813Z" fill="url(#paint8_linear_18_170)"/>
</g>
<g filter="url(#filter2_i_18_170)">
<path fill-rule="evenodd" clip-rule="evenodd" d="M17.418 17.0625H14.487C14.1526 17.8697 13.3572 18.4375 12.4291 18.4375C11.501 18.4375 10.7055 17.8697 10.3712 17.0625H7.96101C7.96055 17.0976 7.96033 17.1328 7.96033 17.168C7.96033 20.8856 10.4986 24.0104 13.9367 24.9038C14.2881 24.142 15.0585 23.6133 15.9525 23.6133C16.8465 23.6133 17.617 24.142 17.9683 24.9038C21.4064 24.0104 23.9447 20.8856 23.9447 17.168C23.9447 17.1328 23.9445 17.0976 23.944 17.0625H21.5339C21.1995 17.8697 20.404 18.4375 19.476 18.4375C18.5479 18.4375 17.7524 17.8697 17.418 17.0625Z" fill="url(#paint9_radial_18_170)"/>
<path fill-rule="evenodd" clip-rule="evenodd" d="M17.418 17.0625H14.487C14.1526 17.8697 13.3572 18.4375 12.4291 18.4375C11.501 18.4375 10.7055 17.8697 10.3712 17.0625H7.96101C7.96055 17.0976 7.96033 17.1328 7.96033 17.168C7.96033 20.8856 10.4986 24.0104 13.9367 24.9038C14.2881 24.142 15.0585 23.6133 15.9525 23.6133C16.8465 23.6133 17.617 24.142 17.9683 24.9038C21.4064 24.0104 23.9447 20.8856 23.9447 17.168C23.9447 17.1328 23.9445 17.0976 23.944 17.0625H21.5339C21.1995 17.8697 20.404 18.4375 19.476 18.4375C18.5479 18.4375 17.7524 17.8697 17.418 17.0625Z" fill="url(#paint10_radial_18_170)"/>
</g>
<g filter="url(#filter3_i_18_170)">
<path d="M20.9455 13.2761L19.827 14.63C19.6653 14.8256 19.8045 15.1211 20.0582 15.1211H22.8436C23.0979 15.1211 23.2369 14.8246 23.0742 14.6291L21.9462 13.2742C21.6856 12.9613 21.2049 12.9622 20.9455 13.2761Z" fill="#583674"/>
<path d="M20.9455 13.2761L19.827 14.63C19.6653 14.8256 19.8045 15.1211 20.0582 15.1211H22.8436C23.0979 15.1211 23.2369 14.8246 23.0742 14.6291L21.9462 13.2742C21.6856 12.9613 21.2049 12.9622 20.9455 13.2761Z" fill="url(#paint11_linear_18_170)"/>
<path d="M20.9455 13.2761L19.827 14.63C19.6653 14.8256 19.8045 15.1211 20.0582 15.1211H22.8436C23.0979 15.1211 23.2369 14.8246 23.0742 14.6291L21.9462 13.2742C21.6856 12.9613 21.2049 12.9622 20.9455 13.2761Z" fill="url(#paint12_radial_18_170)"/>
</g>
<g filter="url(#filter4_i_18_170)">
<path d="M9.92989 13.2761L8.81134 14.63C8.64972 14.8256 8.78887 15.1211 9.04262 15.1211H11.828C12.0823 15.1211 12.2213 14.8246 12.0586 14.6291L10.9305 13.2742C10.67 12.9613 10.1892 12.9622 9.92989 13.2761Z" fill="#583674"/>
<path d="M9.92989 13.2761L8.81134 14.63C8.64972 14.8256 8.78887 15.1211 9.04262 15.1211H11.828C12.0823 15.1211 12.2213 14.8246 12.0586 14.6291L10.9305 13.2742C10.67 12.9613 10.1892 12.9622 9.92989 13.2761Z" fill="url(#paint13_linear_18_170)"/>
<path d="M9.92989 13.2761L8.81134 14.63C8.64972 14.8256 8.78887 15.1211 9.04262 15.1211H11.828C12.0823 15.1211 12.2213 14.8246 12.0586 14.6291L10.9305 13.2742C10.67 12.9613 10.1892 12.9622 9.92989 13.2761Z" fill="url(#paint14_radial_18_170)"/>
</g>
<g filter="url(#filter5_f_18_170)">
<path d="M4.92055 13.3851C5.98063 10.2049 7.63408 9.62236 8.21297 9.40527L3.83514 24.0945C2.93062 22.8282 3.01505 20.7177 3.11153 20.1147C3.35273 18.9569 4.05222 15.9901 4.92055 13.3851Z" fill="#FF9470"/>
</g>
<defs>
<filter id="filter0_ii_18_170" x="1.90723" y="6.3125" width="28.0907" height="23.6875" filterUnits="userSpaceOnUse" color-interpolation-filters="sRGB">
<feFlood flood-opacity="0" result="BackgroundImageFix"/>
<feBlend mode="normal" in="SourceGraphic" in2="BackgroundImageFix" result="shape"/>
<feColorMatrix in="SourceAlpha" type="matrix" values="0 0 0 0 0 0 0 0 0 0 0 0 0 0 0 0 0 0 127 0" result="hardAlpha"/>
<feOffset dy="-0.75"/>
<feGaussianBlur stdDeviation="0.625"/>
<feComposite in2="hardAlpha" operator="arithmetic" k2="-1" k3="1"/>
<feColorMatrix type="matrix" values="0 0 0 0 0.956863 0 0 0 0 0.592157 0 0 0 0 0.823529 0 0 0 1 0"/>
<feBlend mode="normal" in2="shape" result="effect1_innerShadow_18_170"/>
<feColorMatrix in="SourceAlpha" type="matrix" values="0 0 0 0 0 0 0 0 0 0 0 0 0 0 0 0 0 0 127 0" result="hardAlpha"/>
<feOffset/>
<feGaussianBlur stdDeviation="0.5"/>
<feComposite in2="hardAlpha" operator="arithmetic" k2="-1" k3="1"/>
<feColorMatrix type="matrix" values="0 0 0 0 0.890196 0 0 0 0 0.627451 0 0 0 0 0.572549 0 0 0 1 0"/>
<feBlend mode="normal" in2="effect1_innerShadow_18_170" result="effect2_innerShadow_18_170"/>
</filter>
<filter id="filter1_f_18_170" x="20.0701" y="8.20129" width="10.3296" height="16.3014" filterUnits="userSpaceOnUse" color-interpolation-filters="sRGB">
<feFlood flood-opacity="0" result="BackgroundImageFix"/>
<feBlend mode="normal" in="SourceGraphic" in2="BackgroundImageFix" result="shape"/>
<feGaussianBlur stdDeviation="1" result="effect1_foregroundBlur_18_170"/>
</filter>
<filter id="filter2_i_18_170" x="6.46033" y="17.0625" width="17.4844" height="7.84131" filterUnits="userSpaceOnUse" color-interpolation-filters="sRGB">
<feFlood flood-opacity="0" result="BackgroundImageFix"/>
<feBlend mode="normal" in="SourceGraphic" in2="BackgroundImageFix" result="shape"/>
<feColorMatrix in="SourceAlpha" type="matrix" values="0 0 0 0 0 0 0 0 0 0 0 0 0 0 0 0 0 0 127 0" result="hardAlpha"/>
<feOffset dx="-1.5"/>
<feGaussianBlur stdDeviation="0.75"/>
<feComposite in2="hardAlpha" operator="arithmetic" k2="-1" k3="1"/>
<feColorMatrix type="matrix" values="0 0 0 0 0.223529 0 0 0 0 0.0901961 0 0 0 0 0.313726 0 0 0 1 0"/>
<feBlend mode="normal" in2="shape" result="effect1_innerShadow_18_170"/>
</filter>
<filter id="filter3_i_18_170" x="19.2577" y="13.04" width="3.88654" height="2.58105" filterUnits="userSpaceOnUse" color-interpolation-filters="sRGB">
<feFlood flood-opacity="0" result="BackgroundImageFix"/>
<feBlend mode="normal" in="SourceGraphic" in2="BackgroundImageFix" result="shape"/>
<feColorMatrix in="SourceAlpha" type="matrix" values="0 0 0 0 0 0 0 0 0 0 0 0 0 0 0 0 0 0 127 0" result="hardAlpha"/>
<feOffset dx="-0.5" dy="0.5"/>
<feGaussianBlur stdDeviation="0.25"/>
<feComposite in2="hardAlpha" operator="arithmetic" k2="-1" k3="1"/>
<feColorMatrix type="matrix" values="0 0 0 0 0.219608 0 0 0 0 0.121569 0 0 0 0 0.329412 0 0 0 1 0"/>
<feBlend mode="normal" in2="shape" result="effect1_innerShadow_18_170"/>
</filter>
<filter id="filter4_i_18_170" x="8.24207" y="13.04" width="3.88647" height="2.58105" filterUnits="userSpaceOnUse" color-interpolation-filters="sRGB">
<feFlood flood-opacity="0" result="BackgroundImageFix"/>
<feBlend mode="normal" in="SourceGraphic" in2="BackgroundImageFix" result="shape"/>
<feColorMatrix in="SourceAlpha" type="matrix" values="0 0 0 0 0 0 0 0 0 0 0 0 0 0 0 0 0 0 127 0" result="hardAlpha"/>
<feOffset dx="-0.5" dy="0.5"/>
<feGaussianBlur stdDeviation="0.25"/>
<feComposite in2="hardAlpha" operator="arithmetic" k2="-1" k3="1"/>
<feColorMatrix type="matrix" values="0 0 0 0 0.219608 0 0 0 0 0.121569 0 0 0 0 0.329412 0 0 0 1 0"/>
<feBlend mode="normal" in2="shape" result="effect1_innerShadow_18_170"/>
</filter>
<filter id="filter5_f_18_170" x="1.05432" y="7.40527" width="9.15869" height="18.6892" filterUnits="userSpaceOnUse" color-interpolation-filters="sRGB">
<feFlood flood-opacity="0" result="BackgroundImageFix"/>
<feBlend mode="normal" in="SourceGraphic" in2="BackgroundImageFix" result="shape"/>
<feGaussianBlur stdDeviation="1" result="effect1_foregroundBlur_18_170"/>
</filter>
<linearGradient id="paint0_linear_18_170" x1="15.7328" y1="5.4032" x2="16.2178" y2="5.85949" gradientUnits="userSpaceOnUse">
<stop stop-color="#9EC44E"/>
<stop offset="1" stop-color="#9EC44E" stop-opacity="0"/>
</linearGradient>
<linearGradient id="paint1_linear_18_170" x1="18.1659" y1="6.63298" x2="17.2731" y2="6.63298" gradientUnits="userSpaceOnUse">
<stop stop-color="#C7EC76"/>
<stop offset="1" stop-color="#C7EC76" stop-opacity="0"/>
</linearGradient>
<radialGradient id="paint2_radial_18_170" cx="0" cy="0" r="1" gradientUnits="userSpaceOnUse" gradientTransform="translate(18.0142 4.3627) rotate(139.691) scale(0.664853 0.711073)">
<stop stop-color="#C4E973"/>
<stop offset="1" stop-color="#C4E973" stop-opacity="0"/>
</radialGradient>
<linearGradient id="paint3_linear_18_170" x1="15.9526" y1="7.0625" x2="17.2809" y2="31.0515" gradientUnits="userSpaceOnUse">
<stop stop-color="#FF7B3E"/>
<stop offset="1" stop-color="#ED3724"/>
<stop offset="1" stop-color="#F6586D"/>
</linearGradient>
<linearGradient id="paint4_linear_18_170" x1="2.67737" y1="14.6876" x2="5.64417" y2="15.7007" gradientUnits="userSpaceOnUse">
<stop stop-color="#E89B88"/>
<stop offset="1" stop-color="#E89B88" stop-opacity="0"/>
</linearGradient>
<radialGradient id="paint5_radial_18_170" cx="0" cy="0" r="1" gradientUnits="userSpaceOnUse" gradientTransform="translate(29.9979 12.8786) rotate(151.53) scale(15.0276 24.0101)">
<stop stop-color="#FFA182"/>
<stop offset="1" stop-color="#FFA182" stop-opacity="0"/>
</radialGradient>
<radialGradient id="paint6_radial_18_170" cx="0" cy="0" r="1" gradientUnits="userSpaceOnUse" gradientTransform="translate(15.9526 18.5312) rotate(-90) scale(7.09375 9.14205)">
<stop stop-color="#FF7F50"/>
<stop offset="1" stop-color="#FF7F50" stop-opacity="0"/>
</radialGradient>
<radialGradient id="paint7_radial_18_170" cx="0" cy="0" r="1" gradientUnits="userSpaceOnUse" gradientTransform="translate(2.25002 24.2188) rotate(-20.0453) scale(2.46162 4.19685)">
<stop stop-color="#CD7769"/>
<stop offset="1" stop-color="#CD7769" stop-opacity="0"/>
</radialGradient>
<linearGradient id="paint8_linear_18_170" x1="26.9182" y1="13.8193" x2="18.452" y2="16.352" gradientUnits="userSpaceOnUse">
<stop stop-color="#FFAB81"/>
<stop offset="1" stop-color="#FFAB81" stop-opacity="0"/>
</linearGradient>
<radialGradient id="paint9_radial_18_170" cx="0" cy="0" r="1" gradientUnits="userSpaceOnUse" gradientTransform="translate(11.6875 24) rotate(-29.1569) scale(13.598 8.25602)">
<stop stop-color="#694582"/>
<stop offset="1" stop-color="#462162"/>
</radialGradient>
<radialGradient id="paint10_radial_18_170" cx="0" cy="0" r="1" gradientUnits="userSpaceOnUse" gradientTransform="translate(17.8753 15.4859) rotate(121.478) scale(11.0429 10.8655)">
<stop offset="0.876241" stop-color="#3B1652" stop-opacity="0"/>
<stop offset="1" stop-color="#3B1652"/>
</radialGradient>
<linearGradient id="paint11_linear_18_170" x1="20.2812" y1="13.7812" x2="20.6562" y2="14.1563" gradientUnits="userSpaceOnUse">
<stop stop-color="#501E76"/>
<stop offset="1" stop-color="#501E76" stop-opacity="0"/>
</linearGradient>
<radialGradient id="paint12_radial_18_170" cx="0" cy="0" r="1" gradientUnits="userSpaceOnUse" gradientTransform="translate(19.8494 15.1211) rotate(-44.3) scale(1.75341 0.865525)">
<stop stop-color="#6F5384"/>
<stop offset="1" stop-color="#6F5384" stop-opacity="0"/>
</radialGradient>
<linearGradient id="paint13_linear_18_170" x1="9.26558" y1="13.7812" x2="9.64058" y2="14.1563" gradientUnits="userSpaceOnUse">
<stop stop-color="#501E76"/>
<stop offset="1" stop-color="#501E76" stop-opacity="0"/>
</linearGradient>
<radialGradient id="paint14_radial_18_170" cx="0" cy="0" r="1" gradientUnits="userSpaceOnUse" gradientTransform="translate(8.8338 15.1211) rotate(-44.3) scale(1.75341 0.865525)">
<stop stop-color="#6F5384"/>
<stop offset="1" stop-color="#6F5384" stop-opacity="0"/>
</radialGradient>
</defs>
</svg>

<svg width="32" height="32" fill="none" xmlns="http://www.w3.org/2000/svg"><path d="m17.18 4.287-3.323 2.98h4.157V4.66a.5.5 0 0 0-.834-.372Z" fill="#AEC64B"/><path d="m17.18 4.287-3.323 2.98h4.157V4.66a.5.5 0 0 0-.834-.372Z" fill="url(#a)"/><path d="m17.18 4.287-3.323 2.98h4.157V4.66a.5.5 0 0 0-.834-.372Z" fill="url(#b)"/><path d="m17.18 4.287-3.323 2.98h4.157V4.66a.5.5 0 0 0-.834-.372Z" fill="url(#c)"/><g filter="url(#d)"><path d="M12.857 7.063h6.19c4.767 0 8.152 2.65 9.225 6.5l1.344 4.825C31.23 24.188 27.704 30 19.516 30H12.39C4.2 30 .675 24.189 2.289 18.388l1.344-4.825c1.073-3.85 4.459-6.5 9.224-6.5Z" fill="url(#e)"/><path d="M12.857 7.063h6.19c4.767 0 8.152 2.65 9.225 6.5l1.344 4.825C31.23 24.188 27.704 30 19.516 30H12.39C4.2 30 .675 24.189 2.289 18.388l1.344-4.825c1.073-3.85 4.459-6.5 9.224-6.5Z" fill="url(#f)"/><path d="M12.857 7.063h6.19c4.767 0 8.152 2.65 9.225 6.5l1.344 4.825C31.23 24.188 27.704 30 19.516 30H12.39C4.2 30 .675 24.189 2.289 18.388l1.344-4.825c1.073-3.85 4.459-6.5 9.224-6.5Z" fill="url(#g)"/><path d="M12.857 7.063h6.19c4.767 0 8.152 2.65 9.225 6.5l1.344 4.825C31.23 24.188 27.704 30 19.516 30H12.39C4.2 30 .675 24.189 2.289 18.388l1.344-4.825c1.073-3.85 4.459-6.5 9.224-6.5Z" fill="url(#h)"/></g><path d="M12.857 7.063h6.19c4.767 0 8.152 2.65 9.225 6.5l1.344 4.825C31.23 24.188 27.704 30 19.516 30H12.39C4.2 30 .675 24.189 2.289 18.388l1.344-4.825c1.073-3.85 4.459-6.5 9.224-6.5Z" fill="url(#i)"/><g filter="url(#j)"><path d="M26.556 13.681c-.352-1.329-1.089-2.4-1.645-3.026-.275-.31-.68-.454-1.096-.454-.964 0-1.745.782-1.745 1.745v9.557a1 1 0 0 0 1 1h4.33a.998.998 0 0 0 .974-1.223c-.565-2.446-1.427-6.127-1.818-7.599Z" fill="url(#k)"/></g><g filter="url(#l)" fill-rule="evenodd" clip-rule="evenodd"><path d="M17.418 17.063h-2.931a2.227 2.227 0 0 1-4.116 0h-2.41v.105a7.996 7.996 0 0 0 5.976 7.736 2.219 2.219 0 0 1 4.031 0 7.996 7.996 0 0 0 5.976-7.841h-2.41a2.227 2.227 0 0 1-4.116 0Z" fill="url(#m)"/><path d="M17.418 17.063h-2.931a2.227 2.227 0 0 1-4.116 0h-2.41v.105a7.996 7.996 0 0 0 5.976 7.736 2.219 2.219 0 0 1 4.031 0 7.996 7.996 0 0 0 5.976-7.841h-2.41a2.227 2.227 0 0 1-4.116 0Z" fill="url(#n)"/></g><g filter="url(#o)"><path d="m20.945 13.276-1.118 1.354a.3.3 0 0 0 .231.491h2.786a.3.3 0 0 0 .23-.492l-1.128-1.355a.65.65 0 0 0-1 .002Z" fill="#583674"/><path d="m20.945 13.276-1.118 1.354a.3.3 0 0 0 .231.491h2.786a.3.3 0 0 0 .23-.492l-1.128-1.355a.65.65 0 0 0-1 .002Z" fill="url(#p)"/><path d="m20.945 13.276-1.118 1.354a.3.3 0 0 0 .231.491h2.786a.3.3 0 0 0 .23-.492l-1.128-1.355a.65.65 0 0 0-1 .002Z" fill="url(#q)"/></g><g filter="url(#r)"><path d="M9.93 13.276 8.81 14.63a.3.3 0 0 0 .232.491h2.785a.3.3 0 0 0 .23-.492l-1.127-1.355a.65.65 0 0 0-1.001.002Z" fill="#583674"/><path d="M9.93 13.276 8.81 14.63a.3.3 0 0 0 .232.491h2.785a.3.3 0 0 0 .23-.492l-1.127-1.355a.65.65 0 0 0-1.001.002Z" fill="url(#s)"/><path d="M9.93 13.276 8.81 14.63a.3.3 0 0 0 .232.491h2.785a.3.3 0 0 0 .23-.492l-1.127-1.355a.65.65 0 0 0-1.001.002Z" fill="url(#t)"/></g><g filter="url(#u)"><path d="M4.92 13.385c1.06-3.18 2.714-3.763 3.293-3.98l-4.378 14.69c-.904-1.267-.82-3.377-.723-3.98.24-1.158.94-4.125 1.809-6.73Z" fill="#FF9470"/></g><defs><radialGradient id="c" cx="0" cy="0" r="1" gradientUnits="userSpaceOnUse" gradientTransform="matrix(-.507 .4301 -.46 -.54224 18.014 4.363)"><stop stop-color="#C4E973"/><stop offset="1" stop-color="#C4E973" stop-opacity="0"/></radialGradient><radialGradient id="g" cx="0" cy="0" r="1" gradientUnits="userSpaceOnUse" gradientTransform="rotate(151.53 13.365 10.244) scale(15.0276 24.0101)"><stop stop-color="#FFA182"/><stop offset="1" stop-color="#FFA182" stop-opacity="0"/></radialGradient><radialGradient id="h" cx="0" cy="0" r="1" gradientUnits="userSpaceOnUse" gradientTransform="matrix(0 -7.09375 9.14205 0 15.953 18.531)"><stop stop-color="coral"/><stop offset="1" stop-color="coral" stop-opacity="0"/></radialGradient><radialGradient id="i" cx="0" cy="0" r="1" gradientUnits="userSpaceOnUse" gradientTransform="matrix(2.3125 -.84375 1.43852 3.94261 2.25 24.219)"><stop stop-color="#CD7769"/><stop offset="1" stop-color="#CD7769" stop-opacity="0"/></radialGradient><radialGradient id="m" cx="0" cy="0" r="1" gradientUnits="userSpaceOnUse" gradientTransform="matrix(11.87498 -6.62498 4.02236 7.20989 11.688 24)"><stop stop-color="#694582"/><stop offset="1" stop-color="#462162"/></radialGradient><radialGradient id="n" cx="0" cy="0" r="1" gradientUnits="userSpaceOnUse" gradientTransform="matrix(-5.76628 9.41783 -9.26654 -5.67365 17.875 15.486)"><stop offset=".876" stop-color="#3B1652" stop-opacity="0"/><stop offset="1" stop-color="#3B1652"/></radialGradient><radialGradient id="q" cx="0" cy="0" r="1" gradientUnits="userSpaceOnUse" gradientTransform="matrix(1.2549 -1.2246 .6045 .61945 19.85 15.121)"><stop stop-color="#6F5384"/><stop offset="1" stop-color="#6F5384" stop-opacity="0"/></radialGradient><radialGradient id="t" cx="0" cy="0" r="1" gradientUnits="userSpaceOnUse" gradientTransform="rotate(-44.3 22.99 -3.29) scale(1.75341 .86552)"><stop stop-color="#6F5384"/><stop offset="1" stop-color="#6F5384" stop-opacity="0"/></radialGradient><linearGradient id="a" x1="15.733" y1="5.403" x2="16.218" y2="5.859" gradientUnits="userSpaceOnUse"><stop stop-color="#9EC44E"/><stop offset="1" stop-color="#9EC44E" stop-opacity="0"/></linearGradient><linearGradient id="b" x1="18.166" y1="6.633" x2="17.273" y2="6.633" gradientUnits="userSpaceOnUse"><stop stop-color="#C7EC76"/><stop offset="1" stop-color="#C7EC76" stop-opacity="0"/></linearGradient><linearGradient id="e" x1="15.953" y1="7.063" x2="17.281" y2="31.052" gradientUnits="userSpaceOnUse"><stop stop-color="#FF7B3E"/><stop offset="1" stop-color="#ED3724"/><stop offset="1" stop-color="#F6586D"/></linearGradient><linearGradient id="f" x1="2.677" y1="14.688" x2="5.644" y2="15.701" gradientUnits="userSpaceOnUse"><stop stop-color="#E89B88"/><stop offset="1" stop-color="#E89B88" stop-opacity="0"/></linearGradient><linearGradient id="k" x1="26.918" y1="13.819" x2="18.452" y2="16.352" gradientUnits="userSpaceOnUse"><stop stop-color="#FFAB81"/><stop offset="1" stop-color="#FFAB81" stop-opacity="0"/></linearGradient><linearGradient id="p" x1="20.281" y1="13.781" x2="20.656" y2="14.156" gradientUnits="userSpaceOnUse"><stop stop-color="#501E76"/><stop offset="1" stop-color="#501E76" stop-opacity="0"/></linearGradient><linearGradient id="s" x1="9.266" y1="13.781" x2="9.641" y2="14.156" gradientUnits="userSpaceOnUse"><stop stop-color="#501E76"/><stop offset="1" stop-color="#501E76" stop-opacity="0"/></linearGradient><filter id="d" x="1.907" y="6.313" width="28.091" height="23.688" filterUnits="userSpaceOnUse" color-interpolation-filters="sRGB"><feFlood flood-opacity="0" result="BackgroundImageFix"/><feBlend in="SourceGraphic" in2="BackgroundImageFix" result="shape"/><feColorMatrix in="SourceAlpha" values="0 0 0 0 0 0 0 0 0 0 0 0 0 0 0 0 0 0 127 0" result="hardAlpha"/><feOffset dy="-.75"/><feGaussianBlur stdDeviation=".625"/><feComposite in2="hardAlpha" operator="arithmetic" k2="-1" k3="1"/><feColorMatrix values="0 0 0 0 0.956863 0 0 0 0 0.592157 0 0 0 0 0.823529 0 0 0 1 0"/><feBlend in2="shape" result="effect1_innerShadow_18_170"/><feColorMatrix in="SourceAlpha" values="0 0 0 0 0 0 0 0 0 0 0 0 0 0 0 0 0 0 127 0" result="hardAlpha"/><feOffset/><feGaussianBlur stdDeviation=".5"/><feComposite in2="hardAlpha" operator="arithmetic" k2="-1" k3="1"/><feColorMatrix values="0 0 0 0 0.890196 0 0 0 0 0.627451 0 0 0 0 0.572549 0 0 0 1 0"/><feBlend in2="effect1_innerShadow_18_170" result="effect2_innerShadow_18_170"/></filter><filter id="j" x="20.07" y="8.201" width="10.33" height="16.301" filterUnits="userSpaceOnUse" color-interpolation-filters="sRGB"><feFlood flood-opacity="0" result="BackgroundImageFix"/><feBlend in="SourceGraphic" in2="BackgroundImageFix" result="shape"/><feGaussianBlur stdDeviation="1" result="effect1_foregroundBlur_18_170"/></filter><filter id="l" x="6.46" y="17.063" width="17.484" height="7.841" filterUnits="userSpaceOnUse" color-interpolation-filters="sRGB"><feFlood flood-opacity="0" result="BackgroundImageFix"/><feBlend in="SourceGraphic" in2="BackgroundImageFix" result="shape"/><feColorMatrix in="SourceAlpha" values="0 0 0 0 0 0 0 0 0 0 0 0 0 0 0 0 0 0 127 0" result="hardAlpha"/><feOffset dx="-1.5"/><feGaussianBlur stdDeviation=".75"/><feComposite in2="hardAlpha" operator="arithmetic" k2="-1" k3="1"/><feColorMatrix values="0 0 0 0 0.223529 0 0 0 0 0.0901961 0 0 0 0 0.313726 0 0 0 1 0"/><feBlend in2="shape" result="effect1_innerShadow_18_170"/></filter><filter id="o" x="19.258" y="13.04" width="3.887" height="2.581" filterUnits="userSpaceOnUse" color-interpolation-filters="sRGB"><feFlood flood-opacity="0" result="BackgroundImageFix"/><feBlend in="SourceGraphic" in2="BackgroundImageFix" result="shape"/><feColorMatrix in="SourceAlpha" values="0 0 0 0 0 0 0 0 0 0 0 0 0 0 0 0 0 0 127 0" result="hardAlpha"/><feOffset dx="-.5" dy=".5"/><feGaussianBlur stdDeviation=".25"/><feComposite in2="hardAlpha" operator="arithmetic" k2="-1" k3="1"/><feColorMatrix values="0 0 0 0 0.219608 0 0 0 0 0.121569 0 0 0 0 0.329412 0 0 0 1 0"/><feBlend in2="shape" result="effect1_innerShadow_18_170"/></filter><filter id="r" x="8.242" y="13.04" width="3.886" height="2.581" filterUnits="userSpaceOnUse" color-interpolation-filters="sRGB"><feFlood flood-opacity="0" result="BackgroundImageFix"/><feBlend in="SourceGraphic" in2="BackgroundImageFix" result="shape"/><feColorMatrix in="SourceAlpha" values="0 0 0 0 0 0 0 0 0 0 0 0 0 0 0 0 0 0 127 0" result="hardAlpha"/><feOffset dx="-.5" dy=".5"/><feGaussianBlur stdDeviation=".25"/><feComposite in2="hardAlpha" operator="arithmetic" k2="-1" k3="1"/><feColorMatrix values="0 0 0 0 0.219608 0 0 0 0 0.121569 0 0 0 0 0.329412 0 0 0 1 0"/><feBlend in2="shape" result="effect1_innerShadow_18_170"/></filter><filter id="u" x="1.054" y="7.405" width="9.159" height="18.689" filterUnits="userSpaceOnUse" color-interpolation-filters="sRGB"><feFlood flood-opacity="0" result="BackgroundImageFix"/><feBlend in="SourceGraphic" in2="BackgroundImageFix" result="shape"/><feGaussianBlur stdDeviation="1" result="effect1_foregroundBlur_18_170"/></filter></defs></svg>
